icon-themes/breeze_svg/cmd/sc_glueinsertpoint.svg

<svg viewBox="0 0 16 16" xmlns="http://www.w3.org/2000/svg"><path d="m2 2v12h6v-1h-5v-10h10v5h1v-6zm9 7v2h-2v1h2v2h1v-2h2v-1h-2v-2z" fill="#4d4d4d"/><path d="m8 6c-1.1045695 0-2 .8954305-2 2s.8954305 2 2 2 2-.8954305 2-2-.8954305-2-2-2zm0 1c.5522847 0 1 .4477152 1 1s-.4477153 1-1 1-1-.4477152-1-1 .4477153-1 1-1z" fill="#1d99f3"/></svg>

<svg xmlns="http://www.w3.org/2000/svg" viewBox="0 0 16 16">
 <path 
     style="fill:#4d4d4d" 
     d="M 2 2 L 2 14 L 8 14 L 8 13 L 3 13 L 3 3 L 13 3 L 13 8 L 14 8 L 14 2 L 2 2 z M 11 9 L 11 11 L 9 11 L 9 12 L 11 12 L 11 14 L 12 14 L 12 12 L 14 12 L 14 11 L 12 11 L 12 9 L 11 9 z "
     />
 <path 
     style="fill:#1d99f3" 
     d="M 8 6 C 6.8954305 6 6 6.8954305 6 8 C 6 9.1045695 6.8954305 10 8 10 C 9.1045695 10 10 9.1045695 10 8 C 10 6.8954305 9.1045695 6 8 6 z M 8 7 C 8.5522847 7 9 7.4477152 9 8 C 9 8.5522848 8.5522847 9 8 9 C 7.4477153 9 7 8.5522848 7 8 C 7 7.4477152 7.4477153 7 8 7 z "
     />
 </svg>
